X:18001
T:Rosbif Waltz
R:Waltz
C:Trad.
O:France
Z:Paul Hardy's Possible Tunebook 2015 (see www.paulhardy.net). Creative Commons cc by-nc-sa licenced.
M:3/4
L:1/8
Q:1/4=120
K:Am
AB|"Am"c2AB cA|c2AB cA|"Em"B2GA BG|"Am"A2A4|"Am"c2AB cA|c2AB cA|"Em"BA GA BG|"Am"e2e4|
"Am"e2cd ec|"Dm"d2d4|"Am"c2AB cA|"Em"B2B4|"Am"c2AB cA|cB AB cA|"Em"BA GA BG|"Am"A2A2:|
|:A2|"Am"e2f2e2|c4c2|e2f2e2|"Dm"d4d2|"G"d2dB GB|d2dB GB|"Dm"d4c2|"Am"A4:|
|:A2|"Am"c3B c2|"Dm"d4d2|"C"e2g2f2|"Am"e3d c2|"Dm"a3g f2|"Am"e3d c2|"Dm"d4c2|"Am"A4:|

